svg/transport/car_door_line.svg

<?xml version="1.0" encoding="UTF-8"?>
<svg width="24px" height="24px" viewBox="0 0 24 24" version="1.1" xmlns="http://www.w3.org/2000/svg" xmlns:xlink="http://www.w3.org/1999/xlink">
    <title>car_door_line</title>
    <g id="页面-1" stroke="none" stroke-width="1" fill="none" fill-rule="evenodd">
        <g id="car_door_line">
            <path d="M24,0 L24,24 L0,24 L0,0 L24,0 Z M12.5935,23.2578 L12.5819,23.2595 L12.5109,23.295 L12.4919,23.2987 L12.4767,23.295 L12.4057,23.2595 C12.3958,23.2564 12.387,23.259 12.3821,23.2649 L12.378,23.2758 L12.3609,23.7031 L12.3659,23.7235 L12.3769,23.7357 L12.4805,23.8097 L12.4953,23.8136 L12.5071,23.8097 L12.6107,23.7357 L12.6233,23.7197 L12.6267,23.7031 L12.6096,23.2758 C12.6076,23.2657 12.601,23.2593 12.5935,23.2578 Z M12.8584,23.1453 L12.8445,23.1473 L12.6598,23.2397 L12.6499,23.2499 L12.6472,23.2611 L12.6651,23.6906 L12.6699,23.7034 L12.6784,23.7105 L12.8793,23.8032 C12.8914,23.8069 12.9022,23.803 12.9078,23.7952 L12.9118,23.7812 L12.8777,23.1665 C12.8753,23.1546 12.8674,23.147 12.8584,23.1453 Z M12.143,23.1473 C12.1332,23.1424 12.1222,23.1453 12.1156,23.1526 L12.1099,23.1665 L12.0758,23.7812 C12.0751,23.7927 12.0828,23.8019 12.0926,23.8046 L12.1083,23.8032 L12.3092,23.7105 L12.3186,23.7024 L12.3225,23.6906 L12.3404,23.2611 L12.3372,23.2485 L12.3278,23.2397 L12.143,23.1473 Z" id="MingCute"></path>
            <path d="M12.0000009,2 C13.7512,2 15.1902,2.59235 16.1678,3.15858 C17.4919,3.92551 18.0000009,5.36821 18.0000009,6.65685 L18.0000009,8.3677 C18.9021,8.94029 19.7888,9.55108 20.6241,10.2186 C21.0553,10.5636 21.1259,11.1934 20.7809,11.6247 C20.4359,12.0559 19.8068,12.1259 19.3755,11.781 C18.9303,11.4262 18.4675,11.0936 18.0000009,10.7689 L18.0000009,17.5858 C18.0000009,18.7565 17.535,19.8793 16.7071,20.7071 C15.8793,21.5349 14.7565,22 13.5858,22 L10.4143,22 C9.24353,22 8.12076,21.5349 7.29293,20.7071 C6.4651,19.8793 6.00004,18.7565 6.00004,17.5858 L6.00004,10.7689 C5.53281,11.0934 5.06967,11.4263 4.62475,11.7809 C4.19349,12.1257 3.56413,12.0559 3.21917,11.6247 C2.87416,11.1934 2.94408,10.5641 3.37534,10.2191 C4.21075,9.55135 5.09774,8.94043 6.00004,8.3677 L6.00004,6.65685 C6.00004,5.36821 6.50819,3.92551 7.83228,3.15858 C8.80985,2.59235 10.2489,2 12.0000009,2 Z M16,11.4142 L15.8787,11.5355 L15.7432257,11.6802299 C15.3133732,12.1709817 15.0552424,12.7886758 15.0079147,13.4390336 L15,13.6569 L15,17 L14.9945144,17.1492661 C14.9219851,18.1324058 14.1388,18.9178674 13.1566544,18.9939557 L13,19 L11,19 L10.8507428,18.9945144 C9.86765861,18.9219851 9.0821751,18.1388 9.00608446,17.1566544 L9.00004,17 L9.00004,13.6569 L8.99349545,13.4587513 C8.95043417,12.8077433 8.6961914,12.1884466 8.26980933,11.6951399 L8.12136,11.5355 L8.00004,11.4142 L8.00004,17.5858 L8.00761455,17.7769661 C8.052894,18.347288 8.299665,18.88538 8.70714,19.2929 C9.114624,19.70033 9.652761,19.947137 10.2231214,19.9924241 L10.4143,20 L13.5858,20 L13.7769688,19.9924241 C14.347306,19.947137 14.88547,19.70033 15.2929,19.2929 C15.70042,18.88538 15.947155,18.347288 15.9924268,17.7769661 L16,17.5858 L16,11.4142 Z M12,8 C11.4462,8 10.7158,8.19153 9.87247,8.54664 C9.58834333,8.66626667 9.30047444,8.80052444 9.01303222,8.94489185 L8.58271,9.16846 L9.53557,10.1213 C10.4107847,10.9964867 10.9279465,12.1627116 10.9930116,13.3924869 L11,13.6569 L11,17 L13,17 L13,13.6569 C13,12.4192067 13.4589013,11.2288147 14.282473,10.3132118 L14.4645,10.1213 L15.4174,9.16846 C14.9884,8.93844 14.5538,8.72608 14.1276,8.54664 C13.2842,8.19153 12.5539,8 12,8 Z M12,4 C10.7034,4 9.61066,4.43978 8.8347,4.88923 C8.32279,5.18573 8.00004,5.82377 8.00004,6.65685 L8.00004,7.21609 C8.36098,7.03175 8.72863,6.85819 9.09635,6.70336 C10.0342,6.30847 11.0539,6 12,6 C12.9462,6 13.9658,6.30847 14.9037,6.70336 C15.2714,6.85819 15.6391,7.03175 16,7.21609 L16,6.65685 C16,5.82377 15.6773,5.18573 15.1654,4.88923 C14.3894,4.43978 13.2967,4 12,4 Z" id="形状" fill="#09244B" fill-rule="nonzero"></path>
        </g>
    </g>
</svg>

<svg xmlns="http://www.w3.org/2000/svg" width="24" height="24"><g fill="none" fill-rule="evenodd"><path d="M24 0v24H0V0h24ZM12.594 23.258l-.012.002-.071.035-.02.004-.014-.004-.071-.036c-.01-.003-.019 0-.024.006l-.004.01-.017.428.005.02.01.013.104.074.015.004.012-.004.104-.074.012-.016.004-.017-.017-.427c-.002-.01-.009-.017-.016-.018Zm.264-.113-.014.002-.184.093-.01.01-.003.011.018.43.005.012.008.008.201.092c.012.004.023 0 .029-.008l.004-.014-.034-.614c-.003-.012-.01-.02-.02-.022Zm-.715.002a.023.023 0 0 0-.027.006l-.006.014-.034.614c0 .012.007.02.017.024l.015-.002.201-.093.01-.008.003-.011.018-.43-.003-.012-.01-.01-.184-.092Z"/><path fill="#09244B" fill-rule="nonzero" d="M12 2c1.751 0 3.19.592 4.168 1.159C17.492 3.926 18 5.369 18 6.657v1.71a29.634 29.634 0 0 1 2.624 1.852 1 1 0 0 1-1.248 1.562A25.958 25.958 0 0 0 18 10.769v6.817A4.414 4.414 0 0 1 13.586 22h-3.172A4.414 4.414 0 0 1 6 17.586v-6.817c-.467.324-.93.657-1.375 1.012a1 1 0 0 1-1.25-1.562A29.616 29.616 0 0 1 6 8.368V6.657c0-1.289.508-2.731 1.832-3.498C8.81 2.592 10.25 2 12 2Zm4 9.414-.121.122-.136.144a3 3 0 0 0-.735 1.759l-.008.218V17l-.005.15a2 2 0 0 1-1.838 1.844L13 19h-2l-.15-.005a2 2 0 0 1-1.844-1.838L9 17v-3.343l-.007-.198a3 3 0 0 0-.723-1.764l-.149-.16-.121-.12v6.17l.008.192a2.414 2.414 0 0 0 2.215 2.215l.191.008h3.172l.191-.008a2.414 2.414 0 0 0 2.215-2.215l.008-.191v-6.172ZM12 8c-.554 0-1.284.192-2.128.547-.284.12-.572.254-.859.398l-.43.223.953.953a5 5 0 0 1 1.457 3.271l.007.265V17h2v-3.343a5 5 0 0 1 1.282-3.344l.182-.192.953-.953c-.429-.23-.863-.442-1.29-.621C13.285 8.192 12.555 8 12 8Zm0-4c-1.297 0-2.39.44-3.165.89C8.323 5.185 8 5.823 8 6.656v.56c.361-.185.729-.359 1.096-.514C10.034 6.308 11.054 6 12 6s1.966.308 2.904.703c.367.155.735.329 1.096.513v-.56c0-.832-.323-1.47-.835-1.767C14.39 4.44 13.297 4 12 4Z"/></g></svg>
